X: 51
T: Vals de los Caracoles
T: (Waltz of the Snails)
C: Mike Richardson
N: Seattle, Washington
N: Inspired by a Fiddle Tunes workshop with Ruthie Dornfeld and David Steinberg
B: "Gems - The Best of the Country Dance and Song Society", CDSS, 1993, p._
Z: 2011 John Chambers <jc:trillian.mit.edu>
R: waltz
M: 3/4
L: 1/8
K: Gm
zD2 |\
"Gm"G4 B2 | d3 e ^ce | "D"d6- | d4- dd |\
"Gm"g2 ^f2 e2 | d2 c2 B2 | "D7"A6- | A4- AD |
"D7"^F4 A2 | c4 g2 | f3 g eg | ^f4- ff |\
"D7"a2 g2 ^f2 | e2 d2 c2 | "Gm"B6- | B4- BD |
"Gm"G4 B2 | d3 e ^ce | d6- | d4- dd |\
"G"g2 ^f2 e2 | "G7"d2 c2 =B2 | "Cm"[c6-E6-] | [c4-E4-] [cE]c |
"Cm"a2 g2 ^f2 | e2 d2 c2 | "Gm"B2 a2 g2 | d2 B2 G2 |\
"D7"^F2 e2 d2 | A4 B2 | "Gm"G6- | G2 z :|
|: D ^FA | "D7"edAedA | ^FdcDFA | "Gm"cBAcB^F | "Gm"G/z/ =F GF=EF | "F"AFAcf2- |
fedcBc | "Bb"d2dcBc | "D"A/z/ D ^FDFA | "D7"edAedA | ^FdcDFA |
"Gm"cBAcB^F | "Cm"G^FGABG | "Eb"E=FGECE | "Gm"DGDB,G,B, | "D"A,B,CA,DB, | "Gm"G,2 z :|

%%sep 1 1 500
%%sep 1 1 500
